packages/web-icons/svgs/swords.svg

<svg viewBox="0 0 54 48" xmlns="http://www.w3.org/2000/svg" class="ridi_icon"><path d="M39.3 20.8l10.4-9L49.3.3 37.6 0l-8.5 9.5 10.2 11.3zM24.6 33.5L15 25.1l-3.6 4L7 24.8l-3.8 5.1 6 5.9L6 38.4c-1.4-.1-2.9.3-4 1.4-1.9 1.9-1.9 4.9 0 6.8 1.9 1.9 5 1.9 6.9 0 1.1-1.1 1.5-2.5 1.4-3.9l2.7-3.1 6 5.9 5.2-3.7-4.2-4.3 4.6-4z"/><path d="M50.7 29.9l-3.8-5.1-4.4 4.3L16.4 0 4.7.3l-.3 11.5L34 37.5l-4.4 4.3 5.2 3.7 6-5.9 2.7 3.1c-.1 1.4.3 2.8 1.4 3.9 1.9 1.9 5 1.9 6.9 0 1.9-1.9 1.9-4.9 0-6.8-1.1-1.1-2.5-1.5-4-1.4l-3.2-2.6 6.1-5.9z"/></svg>

<?xml version="1.0" encoding="UTF-8"?>
<svg width="54px" height="48px" viewBox="0 0 54 48" version="1.1" xmlns="http://www.w3.org/2000/svg">
  <!-- Generator: Sketch 41.2 (35397) - http://www.bohemiancoding.com/sketch -->
  <title>swords</title>
  <desc>Created with Sketch.</desc>
  <defs></defs>
  <g id="Page-1" stroke="none" stroke-width="1" fill="none" fill-rule="evenodd">
    <g id="swords" fill="#000000">
      <g id="레이어_1">
        <path d="M39.3,20.8 L49.7,11.8 L49.3,0.3 L37.6,0 L29.1,9.5 L39.3,20.8 Z" id="Shape"></path>
        <path d="M24.6,33.5 L15,25.1 L11.4,29.1 L7,24.8 L3.2,29.9 L9.2,35.8 L6,38.4 C4.6,38.3 3.1,38.7 2,39.8 C0.1,41.7 0.1,44.7 2,46.6 C3.9,48.5 7,48.5 8.9,46.6 C10,45.5 10.4,44.1 10.3,42.7 L13,39.6 L19,45.5 L24.2,41.8 L20,37.5 L24.6,33.5 L24.6,33.5 Z" id="Shape"></path>
        <path d="M50.7,29.9 L46.9,24.8 L42.5,29.1 L16.4,0 L4.7,0.3 L4.4,11.8 L34,37.5 L29.6,41.8 L34.8,45.5 L40.8,39.6 L43.5,42.7 C43.4,44.1 43.8,45.5 44.9,46.6 C46.8,48.5 49.9,48.5 51.8,46.6 C53.7,44.7 53.7,41.7 51.8,39.8 C50.7,38.7 49.3,38.3 47.8,38.4 L44.6,35.8 L50.7,29.9 L50.7,29.9 Z" id="Shape"></path>
      </g>
    </g>
  </g>
</svg>
